X:3018
T:Constant Billy
T:None So Pretty
R:Jig
C:Trad.
O:English
Z:Paul Hardy's Session Tunebook 2022 (see www.paulhardy.net). Creative Commons cc by-nc-sa licenced.
M:6/8
L:1/8
Q:3/8=85
K:G
D|"G"G2d BGB|"C"cBA "D7"F2D|"G"BAG "C"E2G|"D7"DEF "G"G2D|
"G"G2d BGB|"C"cBA "D7"F2D|"G"BAG "C"E2G|"D7"DEF "G"G2:|
|:G|"G"Bcd "C"e3|"D7"ABc "G"d3|"G7"Bcd "C"e2e|"D7"ABc def|
"G"g2d BGB|"C"cBA "D7"F2D|"G"BAG "C"EFG|"D7"DEF "G"G2:|

